icons/op-arrow-left-right-24.svg

<svg width="24" height="24" viewBox="0 0 24 24" fill="none" xmlns="http://www.w3.org/2000/svg">
<path d="M20 8.224L14.3216 4L14.2275 5.984C5.47451 5.632 4.28235 10.56 4.25098 11.552C6.35294 7.68 13.098 9.92 14.0706 9.984L14.0078 11.968L20 8.224ZM14.2275 6.336L14.0706 9.92C14.102 8.992 14.1647 8.064 14.2275 6.336ZM9.92941 14.016L9.99216 12.032L4 15.776L9.67843 20L9.83529 16.416C9.80392 16.864 9.80392 17.376 9.77255 18.016C18.5255 18.368 19.7176 13.44 19.749 12.448C17.6471 16.32 10.902 14.08 9.92941 14.016Z" fill="black"/>
</svg>

<svg xmlns="http://www.w3.org/2000/svg" width="24" height="24" viewBox="0 0 24 24"><path d="M20 8.224 14.322 4l-.095 1.984c-8.752-.352-9.945 4.576-9.976 5.568 2.102-3.872 8.847-1.632 9.82-1.568l-.063 1.984L20 8.224Zm-5.773-1.888-.156 3.584c.031-.928.094-1.856.156-3.584Zm-4.298 7.68.063-1.984L4 15.776 9.678 20l.157-3.584c-.031.448-.031.96-.062 1.6 8.753.352 9.945-4.576 9.976-5.568-2.102 3.872-8.847 1.632-9.82 1.568Z"/></svg>
